X:39
T:J'ai une mchante mre
R:
N:
O:France
Z:<anamnese@laposte.net> -- http://anamnese.fr.st
M:2/4
L:1/8
Q:1/4=122
K:F
A>d d>e | e>d (3AAA | d2 e>d | A>d d>d | e>d A A |
[M:3/4] d2c4 | [M:2/4] A>d d>e | e>d (3AAA | d2 e>d | A>d d>d | e>d A A |
[M:3/4] d2c4 | [M:2/4] d>d c>c | f>e d2 | d>d c>c | [M:3/4] f>e d4 ||
W:J'ai une mchante mre, ma dondaine,
